usr/share/icons/biglinux-icons-material-dark/symbolic/actions/align-horizontal-bottom-out.svg

<svg xmlns="http://www.w3.org/2000/svg" viewBox="0 0 16 16">
<defs id="defs3051">
<style id="current-color-scheme" type="text/css">
.ColorScheme-Contrast{color:#dedede}
</style>
</defs>
<path d="M9 2v7h5V2zm1 1h3v5h-3zM2 4v5h5V4zm1 1h3v3H3zm-1 5v1h12v-1zm7 2v2h5v-2z" class="ColorScheme-Contrast" style="fill:currentColor;fill-opacity:1;stroke:none"/>
</svg>

<svg xmlns="http://www.w3.org/2000/svg" viewBox="0 0 16 16">
  <defs id="defs3051">
    <style type="text/css" id="current-color-scheme">
      .ColorScheme-Text {
        color:#dedede;
      }
      </style>
  </defs>
 <path style="fill:currentColor;fill-opacity:1;stroke:none" 
       d="M 9 2 L 9 3 L 9 9 L 14 9 L 14 4 L 14 3 L 14 2 L 9 2 z M 10 3 L 13 3 L 13 4 L 13 8 L 10 8 L 10 4 L 10 3 z M 2 4 L 2 9 L 7 9 L 7 4 L 2 4 z M 3 5 L 6 5 L 6 8 L 3 8 L 3 5 z M 2 10 L 2 11 L 14 11 L 14 10 L 2 10 z M 9 12 L 9 14 L 14 14 L 14 12 L 9 12 z "
     class="ColorScheme-Text"
     />
</svg>
